X: 1287
T: O'Dweyer's Reel
R:Reel
N:Collected by Cronin
B:O'Neill's 1287
Z:Transcribed by Trish O'Neil
M:C|
L:1/8
K:D
G|FADA FADA|FAABA2(GF)|GBEB GBEB|GBBcB2(AG)|
FADA FADA|FAABA2(GF)|EFGB ABcA|d2AG FDD2||
AGABc2(AB)|cBAG (FD)D2|Addcd2(Ac)|d2AG FDD2|
AGABc2(AB)|cBAG FDDC|DEFG ABcA|d2AG (FD)D2|]


